X: 37475
T: Slide From Grace
R: slip jig
M: 9/8
K: Bminor
|:"Bm"d2B BAB def|d2B BAF AA/A/A|d2B BAB def|1 "G"f2e e2d "A"eff:|2 "G"f2e e2d "A"efa||
"Em"b2a afe def|"D/F#"AAA AFA dfa|"G"b2a afe def|"A"f2e e2d efa|
"Em"b2a afe def|"D/F#"AAA AFA def|"G"e2d f2A Bd"A"e|zfa baf e2f||

